!!!OTL: JESUS DER GIENG DEN BERG HINAN
!!!ARE: Europa, Mitteleuropa, Deutschland
!!!SCT: E1957A
!!!YEM: Copyright 1995, estate of Helmut Schaffrath.
**kern
*ICvox
*Ivox
*M3/4
*k[b-]
*F:
{4f
=1
2f
4cc
=2
2a
4f
=3
2cc
4dd
=4
2cc}
{4cc
=5
2a
4b-
=6
4cc
4cc
4b-
=7
4.a
8g
4f
=8
4a
4g
4g
=9
2f}
{4a
=10
2a
4a
=11
4a
4b-
4cc
=12
4cc
4b-
4a
=13
2g}
{4a
=14
4f
4g
4a
=15
4cc
4cc
4b-
=16
4a
4f
4a
=17
2g
4g
=18
2f}
==
!!!AGN: geistlich, Fest - Lied, Biblischer Stoff, Passion
!!!ONB: ESAC (Essen Associative Code) Database: ERK3
!!!AMT: simple triple
!!!AIN: vox
!!!EED: Helmut Schaffrath
!!!EEV: 1.0
*-
